X: 22588
T: Lady Of The Lake
R: reel
M: 4/4
K: Amixolydian
|:A2e2 efed|e2f2 g3e|d2G2 B2GB|d2G2G3B|
A2e2 efed|e2f2 g3a|b3a g2ed|B2A2 A4:|
|:a2e2 ab=c'a|a2e2 e3f|g3a bagf|g2d2 d3f|
g3a bagf|gfga b3a|g2e2 e3d|B2A2 A4:|

